static/img/easy.svg

<svg fill="none" height="91" viewBox="0 0 91 91" width="91" xmlns="http://www.w3.org/2000/svg"><path d="m45.797 80.0159c18.7484 0 33.947-15.1985 33.947-33.947 0-18.7484-15.1986-33.947-33.947-33.947s-33.947 15.1986-33.947 33.947c0 18.7485 15.1986 33.947 33.947 33.947z" fill="#2ebfa5"/><g fill="#454b53"><path d="m46.027 90.3389c-24.588 0-44.59402-20.007-44.59402-44.599 0-24.591 20.00602-44.59696 44.59402-44.59696 24.592 0 44.598 20.00596 44.598 44.59696 0 24.592-20.006 44.599-44.598 44.599zm0-84.16996c-21.818 0-39.56802 17.75196-39.56802 39.57096 0 21.821 17.75002 39.5731 39.56802 39.5731 21.82 0 39.572-17.7521 39.572-39.5731.001-21.819-17.751-39.57096-39.572-39.57096z"/><path d="m61.092 48.2529h-14.926c-1.388 0-2.513-1.125-2.513-2.513v-32.359c0-1.388 1.125-2.513 2.513-2.513s2.513 1.125 2.513 2.513v29.847h12.413c1.387 0 2.512 1.125 2.512 2.513s-1.125 2.512-2.512 2.512z"/><path d="m46.166 80.5649c-1.388 0-2.513-1.125-2.513-2.513v-7.181c0-1.388 1.125-2.513 2.513-2.513s2.513 1.125 2.513 2.513v7.181c0 1.388-1.125 2.513-2.513 2.513z"/><path d="m20.7079 48.2529h-7.073c-1.387 0-2.512-1.125-2.512-2.513s1.125-2.513 2.512-2.513h7.073c1.388 0 2.513 1.125 2.513 2.513s-1.125 2.513-2.513 2.513z"/><path d="m78.424 48.2529h-7.07c-1.387 0-2.512-1.125-2.512-2.513s1.125-2.513 2.512-2.513h7.07c1.387 0 2.512 1.125 2.512 2.513s-1.125 2.513-2.512 2.513z"/><path d="m27.371 31.083c-.605 0-1.213-.218-1.694-.658l-5.222-4.773c-1.023-.937-1.095-2.525-.158-3.55.936-1.023 2.525-1.095 3.549-.159l5.222 4.773c1.024.937 1.095 2.525.159 3.55-.497.542-1.174.817-1.856.817z"/><path d="m69.975 70.0259c-.605 0-1.213-.218-1.694-.658l-5.222-4.771c-1.023-.936-1.096-2.525-.159-3.55s2.525-1.096 3.55-.159l5.221 4.771c1.024.936 1.096 2.525.16 3.55-.497.542-1.176.817-1.856.817z"/><path d="m24.198 72.0759c-.606 0-1.214-.218-1.696-.659-1.023-.938-1.094-2.526-.156-3.55l4.776-5.217c.938-1.024 2.526-1.093 3.55-.157 1.023.938 1.094 2.526.156 3.55l-4.776 5.217c-.495.542-1.173.816-1.854.816z"/><path d="m63.145 29.478c-.605 0-1.212-.218-1.693-.658-1.025-.936-1.097-2.524-.16-3.549l4.77-5.221c.936-1.025 2.525-1.096 3.55-.16s1.097 2.524.16 3.549l-4.772 5.22c-.495.543-1.174.819-1.855.819z"/></g></svg>

<svg width="91" height="91" viewBox="0 0 91 91" fill="none" xmlns="http://www.w3.org/2000/svg">
<path d="M45.797 80.0159C64.5454 80.0159 79.744 64.8174 79.744 46.0689C79.744 27.3205 64.5454 12.1219 45.797 12.1219C27.0486 12.1219 11.85 27.3205 11.85 46.0689C11.85 64.8174 27.0486 80.0159 45.797 80.0159Z" fill="#2EBFA5"/>
<path d="M46.027 90.3389C21.439 90.3389 1.43298 70.3319 1.43298 45.7399C1.43298 21.1489 21.439 1.14294 46.027 1.14294C70.619 1.14294 90.625 21.1489 90.625 45.7399C90.625 70.3319 70.619 90.3389 46.027 90.3389ZM46.027 6.16894C24.209 6.16894 6.45898 23.9209 6.45898 45.7399C6.45898 67.5609 24.209 85.313 46.027 85.313C67.847 85.313 85.599 67.5609 85.599 45.7399C85.6 23.9209 67.848 6.16894 46.027 6.16894Z" fill="#454B53"/>
<path d="M61.092 48.2529H46.166C44.778 48.2529 43.653 47.1279 43.653 45.7399V13.3809C43.653 11.9929 44.778 10.8679 46.166 10.8679C47.554 10.8679 48.679 11.9929 48.679 13.3809V43.2279H61.092C62.479 43.2279 63.604 44.3529 63.604 45.7409C63.604 47.1289 62.479 48.2529 61.092 48.2529Z" fill="#454B53"/>
<path d="M46.166 80.5649C44.778 80.5649 43.653 79.4399 43.653 78.0519V70.8709C43.653 69.4829 44.778 68.3579 46.166 68.3579C47.554 68.3579 48.679 69.4829 48.679 70.8709V78.0519C48.679 79.4399 47.554 80.5649 46.166 80.5649Z" fill="#454B53"/>
<path d="M20.7079 48.2529H13.6349C12.2479 48.2529 11.1229 47.1279 11.1229 45.7399C11.1229 44.3519 12.2479 43.2269 13.6349 43.2269H20.7079C22.0959 43.2269 23.2209 44.3519 23.2209 45.7399C23.2209 47.1279 22.0959 48.2529 20.7079 48.2529Z" fill="#454B53"/>
<path d="M78.424 48.2529H71.354C69.967 48.2529 68.842 47.1279 68.842 45.7399C68.842 44.3519 69.967 43.2269 71.354 43.2269H78.424C79.811 43.2269 80.936 44.3519 80.936 45.7399C80.936 47.1279 79.811 48.2529 78.424 48.2529Z" fill="#454B53"/>
<path d="M27.371 31.083C26.766 31.083 26.158 30.865 25.677 30.425L20.455 25.652C19.432 24.715 19.36 23.127 20.297 22.102C21.233 21.079 22.822 21.007 23.846 21.943L29.068 26.716C30.092 27.653 30.163 29.241 29.227 30.266C28.73 30.808 28.053 31.083 27.371 31.083Z" fill="#454B53"/>
<path d="M69.975 70.0259C69.37 70.0259 68.762 69.8079 68.281 69.3679L63.059 64.5969C62.036 63.6609 61.963 62.0719 62.9 61.0469C63.837 60.0219 65.425 59.9509 66.45 60.8879L71.671 65.6589C72.695 66.5949 72.767 68.1839 71.831 69.2089C71.334 69.7509 70.655 70.0259 69.975 70.0259Z" fill="#454B53"/>
<path d="M24.198 72.0759C23.592 72.0759 22.984 71.8579 22.502 71.4169C21.479 70.4789 21.408 68.8909 22.346 67.8669L27.122 62.6499C28.06 61.6259 29.648 61.5569 30.672 62.4929C31.695 63.4309 31.766 65.0189 30.828 66.0429L26.052 71.2599C25.557 71.8019 24.879 72.0759 24.198 72.0759Z" fill="#454B53"/>
<path d="M63.145 29.478C62.54 29.478 61.933 29.26 61.452 28.82C60.427 27.884 60.355 26.296 61.292 25.271L66.062 20.05C66.998 19.025 68.587 18.954 69.612 19.89C70.637 20.826 70.709 22.414 69.772 23.439L65 28.659C64.505 29.202 63.826 29.478 63.145 29.478Z" fill="#454B53"/>
</svg>
